src/assets/img/networks/kusama.svg

<?xml version="1.0" encoding="UTF-8"?>
<svg viewBox="0 0 48 48" xmlns="http://www.w3.org/2000/svg">
<circle cx="24" cy="24" r="24" fill="#fff"/>
<path d="m38.129 15.997c-0.48-0.3627-1.0546-0.8574-2.1013-0.9814-0.9813-0.124-1.9813 0.504-2.6573 0.92-0.676 0.4147-1.9534 1.636-2.4814 2.0067-0.528 0.372-1.88 0.7173-4.056 1.964s-10.713 6.48-10.713 6.48l2.2227 0.0267-9.9067 4.8733h0.98933l-1.4253 1.0347s1.2587 0.3186 2.3147-0.3187v0.292s11.796-4.44 14.075-3.2893l-1.3893 0.388c0.12 0 2.36 0.1426 2.36 0.1426s0.0747 1.3347 1.4267 2.192c1.352 0.8494 1.38 1.3187 1.38 1.3187s-0.704 0.2733-0.704 0.6187c0 0 1.0373-0.3014 2-0.2747 0.9626 0.0267 1.8053 0.2747 1.8053 0.2747s-0.0733-0.372-1.0093-0.6187c-0.944-0.2573-1.86-1.2213-2.3147-1.752-0.276-0.332-0.4569-0.7325-0.5236-1.1591-0.0667-0.4265-0.0166-0.8632 0.1449-1.2636 0.324-0.804 1.4534-1.2466 3.7867-2.396 2.7493-1.3626 3.38-2.3706 3.768-3.1573 0.3893-0.7867 0.9627-2.352 1.288-3.0867 0.4067-0.9466 0.9067-1.4506 1.324-1.7506 0.4067-0.3014 2.268-0.964 2.268-0.964s-1.4173-1.176-1.8707-1.52z" fill="#2A171F"/>
</svg>

<svg width="48" height="48" viewBox="0 0 48 48" fill="none" xmlns="http://www.w3.org/2000/svg">
<circle cx="24" cy="24" r="24" fill="white"/>
<path d="M38.1293 15.9973C37.6493 15.6346 37.0747 15.1399 36.028 15.0159C35.0467 14.8919 34.0467 15.5199 33.3707 15.9359C32.6947 16.3506 31.4173 17.5719 30.8893 17.9426C30.3613 18.3146 29.0093 18.6599 26.8333 19.9066C24.6573 21.1533 16.12 26.3866 16.12 26.3866L18.3427 26.4133L8.436 31.2866H9.42533L8 32.3213C8 32.3213 9.25867 32.6399 10.3147 32.0026V32.2946C10.3147 32.2946 22.1107 27.8546 24.3893 29.0053L23 29.3933C23.12 29.3933 25.36 29.5359 25.36 29.5359C25.36 29.5359 25.4347 30.8706 26.7867 31.7279C28.1387 32.5773 28.1667 33.0466 28.1667 33.0466C28.1667 33.0466 27.4627 33.3199 27.4627 33.6653C27.4627 33.6653 28.5 33.3639 29.4627 33.3906C30.4253 33.4173 31.268 33.6653 31.268 33.6653C31.268 33.6653 31.1947 33.2933 30.2587 33.0466C29.3147 32.7893 28.3987 31.8253 27.944 31.2946C27.668 30.9626 27.4871 30.5621 27.4204 30.1355C27.3537 29.709 27.4038 29.2723 27.5653 28.8719C27.8893 28.0679 29.0187 27.6253 31.352 26.4759C34.1013 25.1133 34.732 24.1053 35.12 23.3186C35.5093 22.5319 36.0827 20.9666 36.408 20.2319C36.8147 19.2853 37.3147 18.7813 37.732 18.4813C38.1387 18.1799 40 17.5173 40 17.5173C40 17.5173 38.5827 16.3413 38.1293 15.9973Z" fill="#2A171F"/>
</svg>
